wp-content/plugins/google-analytics-for-wordpress/lite/assets/vue/img/yir-icon-loyalty.svg

<svg width="25" height="25" viewBox="0 0 25 25" fill="none" xmlns="http://www.w3.org/2000/svg" style="padding-top: 3px">
    <path fill-rule="evenodd" clip-rule="evenodd" d="M11.9716 0.667005L22.3217 11.0171C22.7357 11.4311 23.0002 12.0176 23.0002 12.6501C23.0002 13.2826 22.7472 13.8576 22.3217 14.2716L14.2716 22.3217C13.8576 22.7472 13.2826 23.0002 12.6501 23.0002C12.0176 23.0002 11.4426 22.7472 11.0286 22.3332L0.678505 11.9831C0.253002 11.5576 0 10.9826 0 10.3501V2.30002C0 1.03501 1.03501 0 2.30002 0H10.3501C10.9826 0 11.5576 0.253002 11.9716 0.667005ZM2.29988 10.3501L12.6499 20.7116L20.7 12.6386L10.3499 2.28851V2.30001H2.29988V10.3501ZM5.17504 3.45002C4.22234 3.45002 3.45002 4.22234 3.45002 5.17504C3.45002 6.12774 4.22234 6.90005 5.17504 6.90005C6.12774 6.90005 6.90005 6.12774 6.90005 5.17504C6.90005 4.22234 6.12774 3.45002 5.17504 3.45002ZM8.62523 13.8C8.19973 13.363 7.93522 12.788 7.93522 12.1325C7.93522 10.833 8.99323 9.775 10.2927 9.775C10.9367 9.775 11.5347 10.0395 11.9603 10.4765L12.6503 11.155L13.3403 10.465C13.7658 10.0395 14.3523 9.775 15.0078 9.775C16.3073 9.775 17.3653 10.833 17.3653 12.1325C17.3653 12.7765 17.1008 13.3745 16.6753 13.8L12.6503 17.8251L8.62523 13.8Z" fill="white"/>
</svg>

<svg width="25" height="25" fill="none" xmlns="http://www.w3.org/2000/svg" style="padding-top:3px"><path fill-rule="evenodd" clip-rule="evenodd" d="M11.972.667l10.35 10.35c.414.414.678 1 .678 1.633s-.253 1.208-.678 1.622l-8.05 8.05A2.249 2.249 0 0112.65 23a2.286 2.286 0 01-1.621-.667L.679 11.983c-.426-.425-.679-1-.679-1.633V2.3C0 1.035 1.035 0 2.3 0h8.05c.633 0 1.208.253 1.622.667zM2.3 10.35l10.35 10.362 8.05-8.073-10.35-10.35V2.3H2.3v8.05zm2.875-6.9a1.725 1.725 0 100 3.45 1.725 1.725 0 000-3.45zm3.45 10.35a2.366 2.366 0 01-.69-1.668 2.36 2.36 0 012.358-2.357c.644 0 1.242.264 1.667.701l.69.679.69-.69a2.346 2.346 0 011.668-.69 2.36 2.36 0 012.357 2.357c0 .645-.264 1.242-.69 1.668l-4.025 4.025L8.625 13.8z" fill="#fff"/></svg>
